X: 10361
T: Each coming day joyous and gay
C: Atwood
Q: "Allegretto"
B: "Man of Feeling", Gaetano Brandi, ed. v.1 p.36-37
F: http://archive.org/details/manoffeelingorge00rugg
Z: 2012 John Chambers <jc:trillian.mit.edu>
N: What's the meaning of the last line of verse 2, "(Da Capo) ..."?
M: 2/4
L: 1/16
K: A
%%continueall
A2 c> A e4 | A2 c> A e3 e | d> e d> B
w: Each com-ing day joy-ous and gay we'll laugh and sing with
c> d c> A | B> c B> A G> F E2 | A2 c> A e3 e |
w: hearts by sor-row ne-ver to be wrung a-gain  Plea-sure shall smile our
A2 c> A e3 e | d> e d> B c> d c> A | {c/}(B>A) (B>c) A4 |
w: Cares to be-guile and Hap-pi-ness by Vir-tue led shall crown* our* mirth
e> ^d e> d e2 E2 | d> c d> c d2 E> d | c> d c> B
w: mer-ri-ly the Cym-bals Ta-bo-rets and Tym-bals will rat-tle till their
(A>B) A> G | F> G A> B G> F E2 | e> ^d e> d e2 E2 |
w: mu-*sic shall make my Fa-ther young a-gain In-no-cence en-joy-ing
d> c d> c d2 HE> d | (c>d) c> B (A>B) A> G | (F>G) (A>B) HE4 |
w: Plea-sure ne-ver cloy-ing Each Mo-*ment shall give* to de-light* new* birth
% p.37
A2 c> A e4 | A2 c> A e3 e | d> e d> B c> d c> A |
w: Each com-ing day joy-ous and gay we'll laugh and sing with hearts by sor-row
B> c B> A G> F E2 | A2 c> A e3 e |
w: ne-ver to be wrung a-gain Plea-sure shall smile our
A2 c> A e3 e | d> e d> B c> d c> A | {c/}(B>A) (B>c) A4 "^D.C."|]
w: Cares to be-guile and Hap-pi-ness by Vir-tue led shall crown* our* mirth.
%
W: 2. \t Then too for me what rapture to see
W: A Husband so stern melt at ev'ry tender look I give
W: \t Others may fear the looks of my dear
W: But I can look saucy as well as he
W: \t Merrily the Cymbals Taborets and Tymbals
W: Will rattle till their mnsic shall make my Father young again
W: \t Innocence enjoying Pleasure never cloying
W: Each moment shall give to delight new birth
W: (Da Capo) Each coming Day (Dancing)
%
%%center -

% Continuation of previous page.

%%sep 2 1 500
%%sep 1 1 500

